X: 1
T: Prokleta da je Australija
O: Macedonia
R: lesnoto
M: 7/8
L: 1/8
N: Words transcribed by Martha Forsyth
Z: From versions by Jack McCreless and Tom Pixton
K: F
P: Instr:
| "C7"[dB][ec]{e}[dB] ~[dB][cA] [d2B2] | [dB][cA][BG] "F"[AF][BG] [cA][AF] \
| "C7"[B2G2][AF] ~[e2c2] [ec][fd] | ~[ec][dB][ec] "F"[c4A4] |
| "C7"[B2G2][AF] "Bb"~[d2B2] [dB][cA] | "C7"~[cA][BG][cA] "F"[A2F2] [cA][dB] \
| "C7"[e2c2][dB] "Bb"[dB][cA] [d2B2] | "C7"[dB][cA][BG] "F"[A2F2] z2 ||
P: Vocal:
|: "F"[c2A2][cA] "C7"[dB][cA] [BG][AF] | "F"[A3-F3-] [A4F4] \
| "C7"[e2-c2-][ec] "Bb"[ec][dB] [dB][cA] | "F"[c3-A3-] [c4A4] |
